ukui-icon-theme-default/scalable/actions/call-start-symbolic.svg

<?xml version="1.0" encoding="iso-8859-1"?>
<!-- Generator: Adobe Illustrator 24.0.0, SVG Export Plug-In . SVG Version: 6.00 Build 0)  -->
<svg version="1.1" id="&#x56FE;&#x5C42;_12" xmlns="http://www.w3.org/2000/svg" xmlns:xlink="http://www.w3.org/1999/xlink"
	 x="0px" y="0px" viewBox="0 0 16 16" style="enable-background:new 0 0 16 16;" xml:space="preserve">
<title>16</title>
<g id="_16">
	<path style="fill:#808080;" d="M3.29,3.37L4.94,5L4.88,5.05L4.17,5.76l0.71,0.71l4.59,4.59l0.71,0.71l0.7-0.71L10.94,11l1.65,1.65
		l-0.22,0.21c-0.321,0.113-0.66,0.167-1,0.16c-1.079,0.01-2.117-0.407-2.89-1.16L4.1,7.47c-0.957-1.075-1.33-2.549-1-3.95l0.15-0.15
		 M3.29,2L2.43,2.85C2.29,2.992,2.19,3.167,2.14,3.36C1.762,5.061,2.219,6.841,3.37,8.15l4.43,4.44
		c0.968,0.925,2.261,1.432,3.6,1.41c0.442,0.002,0.881-0.069,1.3-0.21c0.149-0.059,0.285-0.147,0.4-0.26l0.9-0.9l-3.06-3.02
		l-0.76,0.76L5.59,5.78L6.35,5L3.29,2z"/>
</g>
</svg>

<svg id="图层_12" data-name="图层 12" xmlns="http://www.w3.org/2000/svg" viewBox="0 0 16 16"><defs><style>.cls-1{fill:gray;}</style></defs><title>16</title><g id="_16" data-name="16"><path class="cls-1" d="M3.29,3.37,4.94,5l-.06.05-.71.71.71.71,4.59,4.59.71.71.7-.71.06-.06,1.65,1.65-.22.21a2.82,2.82,0,0,1-1,.16,4.09,4.09,0,0,1-2.89-1.16L4.1,7.47a4.42,4.42,0,0,1-1-3.95l.15-.15M3.29,2l-.86.85a1.13,1.13,0,0,0-.29.51A5.46,5.46,0,0,0,3.37,8.15L7.8,12.59A5.09,5.09,0,0,0,11.4,14a4,4,0,0,0,1.3-.21,1.2,1.2,0,0,0,.4-.26l.9-.9L10.94,9.61l-.76.76L5.59,5.78,6.35,5,3.29,2Z"/></g></svg>
